tools/download-figma-icons/icons/outlined-medium/cash.svg

<svg width="24" height="24" viewBox="0 0 24 24" fill="none" xmlns="http://www.w3.org/2000/svg">
<path fill-rule="evenodd" clip-rule="evenodd" d="M12.0001 1.5C7.26881 1.5 3.46875 3.37079 3.46875 5.25C3.46875 7.12923 7.26869 9 11.9999 9C16.7312 9 20.5312 7.12921 20.5312 5.25C20.5312 3.37077 16.7313 1.5 12.0001 1.5ZM2.25 5.25C2.25 2.16672 6.65118 0 12.0001 0C17.3489 0 21.75 2.16671 21.75 5.25V9.75V10.0155V14.25V14.5155V19.0155C21.75 21.9645 17.3561 24 11.9999 24C6.64377 24 2.25 21.9645 2.25 19.0155V14.5155V14.25V10.0155V9.75V5.25ZM20.5312 9.75V7.86796C18.8619 9.49003 15.6518 10.5 11.9999 10.5C8.3481 10.5 5.13806 9.49005 3.46875 7.86799V9.75V10.0155C3.46875 11.7362 7.27599 13.5 11.9999 13.5C16.7239 13.5 20.5312 11.7362 20.5312 10.0155V9.75ZM20.5312 12.512C18.8631 14.0518 15.6557 15 11.9999 15C8.34422 15 5.13682 14.0518 3.46875 12.5121V14.25V14.5155C3.46875 16.2362 7.27599 18 11.9999 18C16.7239 18 20.5312 16.2362 20.5312 14.5155V14.25V12.512ZM11.9999 19.5C15.6557 19.5 18.8631 18.5518 20.5312 17.012V19.0155C20.5312 20.7362 16.7239 22.5 11.9999 22.5C7.27599 22.5 3.46875 20.7362 3.46875 19.0155V17.0121C5.13682 18.5518 8.34422 19.5 11.9999 19.5Z" fill="black"/>
</svg>

<svg width="24" height="24" viewBox="0 0 24 24" fill="none" xmlns="http://www.w3.org/2000/svg"><path fill-rule="evenodd" clip-rule="evenodd" d="M12 1.5c-4.73 0-8.53 1.87-8.53 3.75S7.269 9 11.999 9c4.732 0 8.532-1.87 8.532-3.75s-3.8-3.75-8.53-3.75ZM2.25 5.25C2.25 2.167 6.651 0 12 0s9.75 2.167 9.75 5.25v13.765C21.75 21.965 17.356 24 12 24s-9.75-2.035-9.75-4.985V5.25Zm18.281 4.5V7.868C18.861 9.49 15.651 10.5 12 10.5c-3.652 0-6.862-1.01-8.531-2.632v2.147c0 1.721 3.807 3.485 8.53 3.485 4.725 0 8.532-1.764 8.532-3.485V9.75Zm0 2.762C18.863 14.052 15.656 15 12 15c-3.656 0-6.863-.948-8.531-2.488v2.003c0 1.721 3.807 3.485 8.53 3.485 4.725 0 8.532-1.764 8.532-3.485v-2.003ZM12 19.5c3.656 0 6.863-.948 8.531-2.488v2.003c0 1.721-3.807 3.485-8.531 3.485s-8.531-1.764-8.531-3.485v-2.003c1.668 1.54 4.875 2.488 8.53 2.488Z" fill="currentColor"/></svg>
